X:1
T:An Spailpín Fánach
R:hornpipe
M:4/4
L:1/8
K:G
gf|:efed B2BA|GABG E2EF|G2GF GABc|dedc B2gf|
|efed B2BA|GABG E2EG|FGAF DEFA|1 G2GF G2gf:|2 G2GF G2GA|]
|:Bdef g2fg|agfe d2Bd|eBef gfed|e2f2 g2fg|
|efed B2BA|GABG E2EG|FGAF DEFA|1 G2GF G2GA:|2 G2GF G2gf|]